src/lib/packages/icons/src/assets/filled/sticky-note-circle-wink.svg

<svg width="24" height="24" viewBox="0 0 24 24" fill="none" xmlns="http://www.w3.org/2000/svg">
<path d="M21.0499 15.75C20.8199 16.11 20.5499 16.45 20.2399 16.76L16.75 20.25C16.44 20.56 16.0999 20.82 15.7399 21.0599V19.01C15.7399 17.22 17.1999 15.76 18.9899 15.76H21.04L21.0499 15.75ZM14.25 21.7399C13.69 21.9099 13.11 22 12.51 22H12C6.37996 22 1.84996 17.37 1.99996 11.72C2.13996 6.49995 6.48995 2.14996 11.71 2.00996C17.36 1.84996 21.9899 6.38996 21.9899 12.01V12.5199C21.9899 13.1099 21.9 13.7 21.73 14.26H18.9899C16.3699 14.26 14.2399 16.39 14.2399 19.01V21.75L14.25 21.7399ZM13.7699 10.6499C14.1299 10.8599 14.59 10.7299 14.79 10.3699C14.88 10.2199 15.12 10.2199 15.21 10.3699C15.35 10.6099 15.5999 10.75 15.8599 10.75C15.9799 10.75 16.11 10.7199 16.23 10.6499C16.59 10.4499 16.72 9.98996 16.51 9.62996C16.2 9.08996 15.62 8.74995 15 8.74995C14.38 8.74995 13.7899 9.08996 13.4899 9.62996C13.2899 9.98996 13.4099 10.4499 13.7699 10.6499ZM9.01995 11.25C9.70995 11.25 10.2699 10.69 10.2699 9.99995C10.2699 9.30995 9.70995 8.74995 9.01995 8.74995C8.32995 8.74995 7.76995 9.30995 7.76995 9.99995C7.76995 10.69 8.33995 11.25 9.01995 11.25ZM14.3299 15.2099C14.6999 15.0299 14.85 14.58 14.67 14.2C14.49 13.83 14.04 13.6799 13.67 13.8599C12.65 14.3699 11.3999 14.3799 10.3299 13.8599C9.95995 13.6799 9.50994 13.8399 9.32995 14.2099C9.14995 14.5799 9.30995 15.0299 9.67995 15.2099C10.41 15.5599 11.1899 15.7399 11.9899 15.7399C12.7899 15.7399 13.6099 15.56 14.3299 15.2V15.2099Z" fill="currentColor"/>
</svg>

<svg xmlns="http://www.w3.org/2000/svg" width="24" height="24" fill="none"><path fill="currentColor" d="M21.05 15.75c-.23.36-.5.7-.81 1.01l-3.49 3.49c-.31.31-.65.57-1.01.81v-2.05c0-1.79 1.46-3.25 3.25-3.25h2.05l.01-.01Zm-6.8 5.99c-.56.17-1.14.26-1.74.26H12C6.38 22 1.85 17.37 2 11.72c.14-5.22 4.49-9.57 9.71-9.71 5.65-.16 10.28 4.38 10.28 10v.51c0 .59-.09 1.18-.26 1.74h-2.74c-2.62 0-4.75 2.13-4.75 4.75v2.74l.01-.01Zm-.48-11.09c.36.21.82.08 1.02-.28.09-.15.33-.15.42 0 .14.24.39.38.65.38.12 0 .25-.03.37-.1.36-.2.49-.66.28-1.02-.31-.54-.89-.88-1.51-.88s-1.21.34-1.51.88c-.2.36-.08.82.28 1.02Zm-4.75.6A1.25 1.25 0 1 0 7.77 10c0 .69.57 1.25 1.25 1.25Zm5.31 3.96c.37-.18.52-.63.34-1.01a.748.748 0 0 0-1-.34c-1.02.51-2.27.52-3.34 0a.752.752 0 0 0-1 .35c-.18.37-.02.82.35 1 .73.35 1.51.53 2.31.53s1.62-.18 2.34-.54v.01Z"/></svg>
